Paper/scalable/apps/preferences-desktop-screensaver-symbolic.svg

<svg viewBox="0 0 16 16"><path d="m2 0s-2 0-2 2v9s0 2 2 2h12s2 0 2-2v-9s0-2-2-2zm0 2h12v9h-12zm5.5 1s-.5 0-.5.5.5.5.5.5.5 0 .5-.5-.5-.5-.5-.5zm5 0s-.5 0-.5.5.5.5.5.5.5 0 .5-.5-.5-.5-.5-.5zm-7 .5-.5 1.5-1.5.5 1.5.5.5 1.5.5-1.5 1.5-.5-1.5-.5zm5 1.2s.5.6.5 1.4c0 1.2-1 2.3-2.3 2.3-.8 0-1.4-.5-1.4-.5s.4 2 2.6 2c1.5 0 2.6-1.2 2.6-2.6 0-2-2-2.6-2-2.6zm-2 .3s-.5 0-.5.5.5.5.5.5.5 0 .5-.5-.5-.5-.5-.5zm-4 3s-.5 0-.5.5.5.5.5.5.5 0 .5-.5-.5-.5-.5-.5zm-.5 6s-1 0-1 1v1h10v-1s0-1-1-1z"/></svg>

<?xml version="1.0" encoding="UTF-8" standalone="no"?>
<svg
   xmlns:dc="http://purl.org/dc/elements/1.1/"
   xmlns:cc="http://creativecommons.org/ns#"
   xmlns:rdf="http://www.w3.org/1999/02/22-rdf-syntax-ns#"
   xmlns:svg="http://www.w3.org/2000/svg"
   xmlns="http://www.w3.org/2000/svg"
   xmlns:sodipodi="http://sodipodi.sourceforge.net/DTD/sodipodi-0.dtd"
   xmlns:inkscape="http://www.inkscape.org/namespaces/inkscape"
   height="16"
   width="16"
   id="svg2"
   version="1.1"
   inkscape:version="0.91 r13725"
   sodipodi:docname="preferences-desktop-screensaver-symbolic.svg">
  <metadata
     id="metadata18">
    <rdf:RDF>
      <cc:Work
         rdf:about="">
        <dc:format>image/svg+xml</dc:format>
        <dc:type
           rdf:resource="http://purl.org/dc/dcmitype/StillImage" />
        <dc:title></dc:title>
      </cc:Work>
    </rdf:RDF>
  </metadata>
  <defs
     id="defs16" />
  <sodipodi:namedview
     pagecolor="#ffffff"
     bordercolor="#666666"
     borderopacity="1"
     objecttolerance="10"
     gridtolerance="10"
     guidetolerance="10"
     inkscape:pageopacity="0"
     inkscape:pageshadow="2"
     inkscape:window-width="640"
     inkscape:window-height="480"
     id="namedview14"
     showgrid="true"
     inkscape:zoom="32"
     inkscape:cx="11.140118"
     inkscape:cy="8.1933411"
     inkscape:current-layer="svg2">
    <inkscape:grid
       type="xygrid"
       id="grid7179" />
  </sodipodi:namedview>
  <path
     sodipodi:nodetypes="cscscscscccccccscsccscscccccccccccsscssccscsccscsccscccsc"
     inkscape:connector-curvature="0"
     id="path7192"
     d="M 2,0 C 2,0 0,0 0,2 l 0,9 c 0,0 0,2 2,2 l 12,0 c 0,0 2,0 2,-2 l 0,-9 c 0,0 0,-2 -2,-2 z m 0,2 12,0 0,9 -12,0 z M 7.5,3 C 7.5,3 7,3 7,3.5 7,4 7.5,4 7.5,4 7.5,4 8,4 8,3.5 8,3 7.5,3 7.5,3 Z m 5,0 C 12.5,3 12,3 12,3.5 12,4 12.5,4 12.5,4 12.5,4 13,4 13,3.5 13,3 12.5,3 12.5,3 Z M 5.5,3.5 5,5 3.5,5.5 5,6 5.5,7.5 6,6 7.5,5.5 6,5 Z m 5,1.1992188 c 0,0 0.5,0.6007812 0.5,1.4003906 0,1.2 -1.0007814,2.3014165 -2.3007812,2.3007812 C 7.9,8.4 7.3007812,7.9003906 7.3007812,7.9003906 c 0,0 0.3992188,1.9996094 2.5996094,2 C 11.400391,9.9006569 12.5,8.7007812 12.5,7.3007812 12.5,5.3 10.5,4.6992188 10.5,4.6992188 Z M 8.5,5 C 8.5,5 8,5 8,5.5 8,6 8.5,6 8.5,6 8.5,6 9,6 9,5.5 9,5 8.5,5 8.5,5 Z m -4,3 C 4.5,8 4,8 4,8.5 4,9 4.5,9 4.5,9 4.5,9 5,9 5,8.5 5,8 4.5,8 4.5,8 Z M 4,14 c 0,0 -1,0 -1,1 l 0,1 10,0 0,-1 c 0,0 0,-1 -1,-1 z" />
</svg>
